X: 226
T:Flying Home To Shelly
C:Paul Gitlitz
M:4/4
F:http://blackrosetheband.googlepages.com/ABCTUNES.ABC May 2009
R:
K:G
|:"G"D2 dD cDBD|"Am"E2 cE BEAE|"Bm"D2 BD ADGD|"C"FGAF DFED|
"G"D2 dD cDBD|"Am"E2 cE BEAE|"Bm"D2 BD "Am"ADGD|1 "D"FGAF "G"G2 GE :|2 "D"FGAF "G"G2 Bc||
|:"G"d3 B AGAB|"Am"c3 B AG E2|"C"e3d "Bm"B2 dB|"Am"ABcB "D"A2 Bc|
"G"d3 B AGAB|"Am"c3 B AG E2|"C"e3d "Am"B2 dB|1 "D"ABcA "G"GABc :|2 "D"ABcA "G"G2 GE||

